X: 2
T: Paddy On The Turnpike
R: reel
M: 4/4
L: 1/8
K: Gmin
DGG^F G2GA|BGdG eGdG|DFF=E F2FG|AFcF dFcF|DGG^F G2GA|BAGA Bcd=e|f=efd cAFA|BGAF G4:||:dgg^f g2ga|baga bgaf|dffg f2fg|agfg afgf|dgg^f g2ga|bagf dcd=e|f=efd cAFA|BGAF G4:||


Tune 338	Setting 13127

